!!!!SEGMENT: pl-kk--kk-i-32--004_anonim--missa-sabbativa-agnus-dei.krn
!!!cenid: 17xx:2239
!!!COM: Anonim
!!!COM-rismID: pe30004985
!!!CDT:
!!!CNT:
!!!OPR: Missa Sabbativa
!!!OTL: Agnus Dei
!!!OMV: 004
!!!PDT:
!!!AGN: Sacred; Mass
!!!SMS-siglum: PL-Kk
!!!SMS-shelfmark: Kk.I.32
!!!SMS-shelfwork: 001-004 M
!!!SMS-variant:
!!!SMS-altvar:
!!!NIFC-rismSourceID: 1001156562
!!!NIFC-rismChildID: 1001156562
!!!NIFC-islandoraID: pl-kk:15507
!!!URL-pdf-islandora: https://repozytorium.nifc.pl/islandora/object/pl-kk%3A15507/datastream/PDF/view
!!!URL-scan:
!!!ONB-nifc: UWAGA: części Mszy: 1. Kyrie, 2. Et in terra, 3. Sanctus, 4. Agnus Dei.
!!!AIN: 1 alto 1 empty 2 tenor
!!!key:
**kern	**text	**kern	**text	**kern	**text	**kern	**text
*part4	*part4	*part3	*part3	*part2	*part2	*part1	*part1
*staff4	*staff4	*staff3	*staff3	*staff2	*staff2	*staff1	*staff1
*Iempty	*	*Itenor	*	*Itenor	*	*Ialto	*
*I"Baſso.	*	*I"Tenore in Chorali.	*	*I"Tenore 1mo.	*	*I"Alto	*
*I'B	*	*I'T 2	*	*I'T 1	*	*I'A	*
*clefF3	*	*clefC3	*	*clefC3	*	*clefC3	*
*k[b-]	*	*k[b-]	*	*k[b-]	*	*k[]	*
*F:	*	*F:	*	*F:	*	*F:	*
*M2/1	*	*M2/1	*	*M2/1	*	*M2/1	*
*met(C|)	*	*met(C|)	*	*met(C|)	*	*met(C|)	*
=1-	=1-	=1-	=1-	=1-	=1-	=1-	=1-
*lig	*	*lig	*	*lig	*	*	*
!LO:TX:a:t=P:problem=znaki BB- B-	!	!LO:TX:t=P:problem=w niektórych linijkach brak bemola przy kluczu, ale nie ma to znaczenia, gdyż dżwięk 'B-' w tym głosie się nie pojawia	!	!	!	!LO:TX:a:t=1mum	!
!LO:TX:a:t=1mum.	!	!	!	!	!	!	!
1F	A-	1F	A-	1c	A-	0f	A-
1D	.	1A	.	1d	.	.	.
*Xlig	*	*Xlig	*	*Xlig	*	*	*
=2-	=2-	=2-	=2-	=2-	=2-	=2-	=2-
*lig	*	*lig	*	*	*	*	*
!	!	!	!	!	!	!LO:TX:t=P:problem=kreska pseudotaktowa	!
1C	.	1c	.	2G/	.	1e	.
.	.	.	.	1A	.	.	.
*	*	*	*	*	*	*lig	*
1D	.	1A	.	.	.	1d	.
!	!	!	!	!LO:TX:t=P:problem=kreska pseudotaktowa	!	!	!
.	.	.	.	2F/	.	.	.
*Xlig	*	*Xlig	*	*	*	*	*
=3-	=3-	=3-	=3-	=3-	=3-	=3-	=3-
*lig	*	*lig	*	*	*	*	*
1BB-	.	1d	.	1B-	.	1f	.
*	*	*	*	*	*	*Xlig	*
*	*	*	*	*	*	*lig	*
1C	.	1c	.	1G	.	1e	.
*Xlig	*	*Xlig	*	*	*	*	*
=4-	=4-	=4-	=4-	=4-	=4-	=4-	=4-
*lig	*	*lig	*	*	*	*	*
1F	.	1A	.	2F/	.	1c	.
.	.	.	.	1c	.	.	.
*	*	*	*	*	*	*Xlig	*
*	*	*	*	*	*	*lig	*
1D	.	1F	.	.	.	1d	.
!	!	!	!	!LO:TX:t=P:problem=kreska pseudotaktowa	!	!	!
.	.	.	.	2B-/	.	.	.
*Xlig	*	*Xlig	*	*	*	*	*
=5-	=5-	=5-	=5-	=5-	=5-	=5-	=5-
*lig	*	*	*	*	*	*	*
1C	-gnus	1G	.	1.c	.	1e	.
*	*	*	*	*	*	*Xlig	*
!LO:TX:t=P:problem=kreska pseudotaktowa	!	!LO:TX:t=P:problem=kreska pseudotaktowa	!	!	!	!LO:TX:t=P:problem=kreska pseudotaktowa	!
1F	.	1F	-gnus	.	.	1f	-gnus
.	.	.	.	2B-/	.	.	.
*Xlig	*	*	*	*	*	*	*
=6-	=6-	=6-	=6-	=6-	=6-	=6-	=6-
0F	De-	0f	De-	0A	.	0c	De-
=7-	=7-	=7-	=7-	=7-	=7-	=7-	=7-
!	!	!	!	!LO:TX:t=P:problem=kreska pseudotaktowa	!	!	!
*	*	*	*	*	*	*lig	*
1C	.	1e	.	1G	-gnus	1c	.
!	!	!	!	!	!	!LO:TX:t=P:problem=♭ above	!
1.G	.	0d	.	1.g	De-	1B-X	.
*	*	*	*	*	*	*Xlig	*
=8-	=8-	=8-	=8-	=8-	=8-	=8-	=8-
.	.	.	.	.	.	2B-/	.
*	*	*	*	*2\right	*	*	*
!LO:TX:t=P:problem=kreska pseudotaktowa	!	!	!	!	!	!	!
2F/	.	.	.	2d\	.	2A/	.
*	*	*lig	*	*	*	*	*
2E/	.	1g	.	1e	.	2G/	.
2C/	.	.	.	.	.	1c\	.
=9-	=9-	=9-	=9-	=9-	=9-	=9-	=9-
!	!	!	!	!LO:TX:t=P:problem=kreska pseudotaktowa	!	!	!
1D	.	1f	.	1d	.	.	.
!	!	!	!	!	!	!LO:TX:t=P:problem=kreska pseudotaktowa	!
.	.	.	.	.	.	2Bn/	.
*	*	*Xlig	*	*	*	*	*
!LO:TX:t=P:problem=kreska pseudotaktowa	!	!	!	!	!	!	!
*	*	*lig	*	*	*	*	*
1C	.	1e	.	2e\	.	2c/	-i
.	.	.	.	1c\	.	1g\	De-
!LO:LB:g=original	!	!	!	!	!	!	!
=10-	=10-	=10-	=10-	=10-	=10-	=10-	=10-
1G	.	1d	.	.	.	.	.
*	*	*	*	*	*	*2\right	*
!	!	!	!	!LO:TX:t=P:problem=kreska pseudotaktowa	!	!	!
.	.	.	.	2B-/	.	2g\	.
*	*	*Xlig	*	*	*	*	*
!	!	!	!	!LO:LB:g=original	!	!	!
!LO:TX:t=P:problem=kreska pseudotaktowa	!	!LO:TX:t=P:problem=kreska pseudotaktowa	!	!LO:TX:t=P:problem=kreska pseudotaktowa	!	!LO:TX:t=P:problem=kreska pseudotaktowa	!
0C	-i	0c	-i	0c	-i	0e	-i
!	!	!	!	!	!	!LO:LB:g=original	!
=11-	=11-	=11-	=11-	=11-	=11-	=11-	=11-
.	.	.	.	.	.	.	.
*lig	*	*lig	*	*lig	*	*	*
1D	Qui	1f	Qui	1A	Qui	1A	Qui
=12-	=12-	=12-	=12-	=12-	=12-	=12-	=12-
!	!	!	!	!	!	!LO:TX:t=P:problem=kreska pseudotaktowa	!
1C	.	1e	.	1G	.	1c	tol-
*Xlig	*	*Xlig	*	*Xlig	*	*	*
1D	tol-	1d	tol-	1F	tol-	2A/	-lis
.	.	.	.	.	.	1F/	pec-
=13-	=13-	=13-	=13-	=13-	=13-	=13-	=13-
!LO:TX:t=P:problem=kreska pseudotaktowa	!	!LO:TX:t=P:problem=kreska pseudotaktowa	!	!LO:TX:t=P:problem=kreska pseudotaktowa	!	!	!
1D	-lis	1A	-lis	1A	-lis	.	.
.	.	.	.	.	.	1f	-ca-
!	!	!LO:LB:g=original	!	!	!	!	!
*	*	*lig	*	*lig	*	*	*
1BB-	pec-	1d	pec-	1B-	pec-	.	.
!	!	!	!	!	!	!LO:TX:t=P:problem=kreska pseudotaktowa	!
.	.	.	.	.	.	2f\	-ta
=14-	=14-	=14-	=14-	=14-	=14-	=14-	=14-
1C	.	1c	-ca-	1G	.	1e	pec-
*	*	*Xlig	*	*Xlig	*	*	*
!LO:TX:t=P:problem=kreska pseudotaktowa	!	!	!	!	!	!LO:TX:t=P:problem=kreska pseudotaktowa	!
1F	-ca-	1A	-ta	2F/	-ca-	1c	.
.	.	.	.	1A/	.	.	.
=15-	=15-	=15-	=15-	=15-	=15-	=15-	=15-
!	!	!LO:TX:t=P:problem=kreska pseudotaktowa	!	!	!	!	!
2D/	-ta	1F	.	.	.	1d	-ca-
!	!	!	!	!LO:TX:t=P:problem=kreska pseudotaktowa	!	!	!
2BB-/	mun-	.	.	2B-/	.	.	.
*	*	*lig	*	*	*	*	*
1F	.	1A	pec-	2A/	.	2c\	.
.	.	.	.	2F/	.	2d\	.
=16-	=16-	=16-	=16-	=16-	=16-	=16-	=16-
2C,/	-di	1c	.	2G/	.	2e\	.
!	!	!	!	!LO:TX:t=P:problem=kreska pseudotaktowa	!	!	!
1c	pec-	.	.	2A/	.	2f\	.
*	*	*Xlig	*	*	*	*	*
*2\right	*	*lig	*	*	*	*	*
!	!	!	!	!	!	!LO:TX:t=P:problem=kreska pseudotaktowa	!
.	.	1d	-ca-	1G	.	1g	.
!LO:TX:t=P:problem=kreska pseudotaktowa	!	!	!	!	!	!	!
2Bn\	.	.	.	.	.	.	.
=17-	=17-	=17-	=17-	=17-	=17-	=17-	=17-
2c\	-ca-	1c	.	2A/	.	2e\	-ta
2C/	.	.	.	1G	.	1c	mun-
*	*	*Xlig	*	*	*	*	*
*	*	*lig	*	*	*	*	*
1D	.	1f	.	.	.	.	.
!	!	!	!	!LO:TX:t=P:problem=kreska pseudotaktowa	!	!	!
.	.	.	.	2F/	-ta	2Bn/	.
=18-	=18-	=18-	=18-	=18-	=18-	=18-	=18-
!LO:TX:t=P:problem=kreska pseudotaktowa	!	!	!	!	!	!LO:TX:t=P:problem=kreska pseudotaktowa	!
1C	-ta	1e	.	2G/	mun-	1c	-di
.	.	.	.	1c	.	.	.
*	*	*Xlig	*	*	*	*	*
*	*	*lig	*	*	*	*	*
1G	mun-	1d	.	.	.	1d	pec-
.	.	.	.	2Bn/	.	.	.
=19-	=19-	=19-	=19-	=19-	=19-	=19-	=19-
!	!	!	!	!LO:TX:t=P:problem=kreska pseudotaktowa	!	!	!
1C	.	1c	.	0c	-di.	1e	-ca-
*lig	*	*Xlig	*	*	*	*	*
*	*	*lig	*	*	*	*	*
1F	.	1A	-ta-	.	.	2f\	.
.	.	.	.	.	.	2F/	.
!	!	!	!	!LO:LB:g=original	!	!	!
=20-	=20-	=20-	=20-	=20-	=20-	=20-	=20-
1D	.	1F	.	2d\	mun-	2A/	-ta
!	!	!	!	!	!	!LO:TX:t=P:problem=kreska pseudotaktowa	!
.	.	.	.	1f	.	2B/	.
*Xlig	*	*Xlig	*	*	*	*	*
!	!	!	!	!	!	!LO:LB:g=original	!
!LO:TX:t=P:problem=kreska pseudotaktowa	!	!	!	!	!	!LO:TX:a:t=P:problem=bemol przy kluczu - tylko w tej linijce	!
1C	-di,	1G	-mun-	.	.	1c	mun-
.	.	.	.	2e\	.	.	.
!LO:LB:g=original	!	!	!	!	!	!	!
=21-	=21-	=21-	=21-	=21-	=21-	=21-	=21-
!	!	!LO:TX:t=P:problem=kreska pseudotaktowa	!	!LO:TX:t=P:problem=kreska pseudotaktowa	!	!LO:TX:t=P:problem=kreska pseudotaktowa	!
1c	mi-	1F	-di,	1f,	-di	1A	-di
!LO:TX:t=P:problem=kreska pseudotaktowa	!	!	!	!	!	!	!
1F	se-	1f	mi-	1A	mi-	1c	mi-
=22-	=22-	=22-	=22-	=22-	=22-	=22-	=22-
1D	-re-	1f	-ſe-	2A/	-se-	1d	-ſe-
.	.	.	.	2B-/	.	.	.
2C/	-re	1e	-re-	1c	-re-	1e	-re-
1c\	no-	.	.	.	.	.	.
=23-	=23-	=23-	=23-	=23-	=23-	=23-	=23-
!	!	!LO:TX:t=P:problem=kreska pseudotaktowa	!	!LO:TX:t=P:problem=kreska pseudotaktowa	!	!LO:TX:t=P:problem=kreska pseudotaktowa	!
.	.	1d	-re	1G	-re	1g	-re
2B-y\	.	.	.	.	.	.	.
!LO:TX:t=P:problem=kreska pseudotaktowa	!	!	!	!	!	!	!
*	*	*lig	*	*	*	*	*
1c	-bis	1e	no-	1c	no-	1e	no-
=24-	=24-	=24-	=24-	=24-	=24-	=24-	=24-
1C	mi-	1g	.	2G/	.	2e\	.
.	.	.	.	2E/	.	1c	.
*	*	*Xlig	*	*	*	*	*
*	*	*lig	*	*	*	*	*
1D	.	1f	.	1F	.	.	.
!	!	!	!	!	!	!LO:TX:t=P:problem=kreska pseudotaktowa	!
.	.	.	.	.	.	2B/	.
=25-	=25-	=25-	=25-	=25-	=25-	=25-	=25-
*	*	*custos:d	*	*	*	*	*
!LO:TX:t=P:problem=kreska pseudotaktowa	!	!LO:TX:t=P:problem=kreska pseudotaktowa	!	!	!	!	!
1C	-se-	1e	.	2G/	.	2c,/	-bis
.	.	.	.	1c	.	1g	mi-
*	*	*Xlig	*	*	*	*	*
!	!	!LO:LB:g=original	!	!	!	!	!
1G	-re-	1d	.	.	.	.	.
!	!	!	!	!LO:TX:t=P:problem=kreska pseudotaktowa	!	!LO:TX:t=P:problem=kreska pseudotaktowa	!
.	.	.	.	2B-/	.	2g\	-se-
=26-	=26-	=26-	=26-	=26-	=26-	=26-	=26-
!	!	!LO:TX:t=P:problem=kreska pseudotaktowa	!	!	!	!	!
2C/	.	0c	.	1c	.	2e\	-re-
1F	.	.	.	.	.	1a	.
.	.	.	.	2F/	.	.	.
!LO:TX:t=P:problem=kreska pseudotaktowa	!	!	!	!	!	!LO:TX:t=P:problem=kreska pseudotaktowa	!
2E/	.	.	.	2G/	.	2g\	.
=27-	=27-	=27-	=27-	=27-	=27-	=27-	=27-
*	*	*lig	*	*	*	*	*
1D	.	1f	.	2A/	.	2f\	.
.	.	.	.	2B-/	.	2d\	.
!	!	!	!	!LO:TX:t=P:problem=kreska pseudotaktowa	!	!	!
2C/	-re	1e	.	1c	.	1g	.
1c\	no-	.	.	.	.	.	.
*	*	*Xlig	*	*	*	*	*
=28-	=28-	=28-	=28-	=28-	=28-	=28-	=28-
*	*	*lig	*	*	*	*	*
.	.	1d	.	1d	.	2f\	.
!	!	!	!	!	!	!LO:TX:t=P:problem=kreska pseudotaktowa	!
2B-\	.	.	.	.	.	2d\	-re
!	!	!	!	!	!	!LO:LB:g=original	!
*lig	*	*	*	*lig	*	*	*
1A	.	1A	.	1c	.	2e\	no-
.	.	.	.	.	.	2f\	.
*	*	*Xlig	*	*	*	*	*
=29-	=29-	=29-	=29-	=29-	=29-	=29-	=29-
*	*	*lig	*	*	*	*	*
!	!	!	!	!	!	!LO:TX:t=P:problem=kreska pseudotaktowa	!
1G	.	1d	.	1B-	.	1g	-bis
*Xlig	*	*	*	*Xlig	*	*	*
!	!	!	!	!LO:TX:t=P:problem=kreska pseudotaktowa	!	!	!
*	*	*	*	*	*	*lig	*
1C	.	1c	.	1c	-bis.	1e	.
*	*	*Xlig	*	*	*	*	*
!	!	!	!	!LO:LB:g=original	!	!	!
=30-	=30-	=30-	=30-	=30-	=30-	=30-	=30-
*	*	*lig	*	*	*	*	*
1F	.	1A	.	2c/	mi-	1c	mi-
.	.	.	.	1A	.	.	.
*	*	*	*	*	*	*Xlig	*
!LO:TX:t=P:problem=kreska pseudotaktowa	!	!LO:TX:t=P:problem=kreska pseudotaktowa	!	!	!	!	!
0D	.	1F	.	.	.	1d	-se-
!	!	!	!	!LO:TX:t=P:problem=kreska pseudotaktowa	!	!	!
.	.	.	.	2F/	-se-	.	.
*	*	*Xlig	*	*	*	*	*
=31-	=31-	=31-	=31-	=31-	=31-	=31-	=31-
*	*	*lig	*	*lig	*	*	*
!	!	!	!	!	!	!LO:TX:t=P:problem=kreska pseudotaktowa	!
.	.	1A	.	1F	-re-	1f	-re-
!LO:LB:g=original	!	!	!	!	!	!	!
*lig	*	*	*	*	*	*lig	*
1C	.	1c	.	1G	.	1e	-re
*	*	*Xlig	*	*	*	*	*
=32-	=32-	=32-	=32-	=32-	=32-	=32-	=32-
*	*	*lig	*	*	*	*	*
1BB-	.	1d	.	1B-	.	1f	.
*Xlig	*	*	*	*Xlig	*	*Xlig	*
!LO:TX:t=P:problem=kreska pseudotaktowa	!	!	!	!	!	!	!
*	*	*	*	*lig	*	*	*
1C	.	1c	.	1G	.	2e\	no-
.	.	.	.	.	.	1c\	.
*	*	*Xlig	*	*	*	*	*
=33-	=33-	=33-	=33-	=33-	=33-	=33-	=33-
*	*	*lig	*	*	*	*	*
1D	.	1f	.	1F	.	.	.
!	!	!	!	!	!	!LO:TX:t=P:problem=kreska pseudotaktowa	!
.	.	.	.	.	.	2B/	.
*	*	*	*	*Xlig	*	*	*
*	*	*	*	*lig	*	*	*
2C,/	-bis	1e	.	1c	.	1c	.
1c\	mi-	.	.	.	.	.	.
*	*	*Xlig	*	*	*	*	*
=34-	=34-	=34-	=34-	=34-	=34-	=34-	=34-
*	*	*lig	*	*	*	*	*
.	.	1d	.	1G	.	1d	.
!LO:TX:t=P:problem=kreska pseudotaktowa	!	!	!	!	!	!	!
2B-\	-se-	.	.	.	.	.	.
*	*	*	*	*Xlig	*	*	*
!	!	!	!	!LO:TX:t=P:problem=kreska pseudotaktowa	!	!LO:TX:t=P:problem=kreska pseudotaktowa	!
1A	-re-	1c	.	1c	-re	1e	.
*	*	*Xlig	*	*	*	*	*
=35-	=35-	=35-	=35-	=35-	=35-	=35-	=35-
*	*	*lig	*	*	*	*	*
1F	-re	1A	.	2c/	no-	2f\	.
!	!	!	!	!LO:TX:t=P:problem=kreska pseudotaktowa	!	!LO:TX:t=P:problem=kreska pseudotaktowa	!
.	.	.	.	[2A/	.	2c\	.
*lig	*	*	*	*	*	*	*
1D	no-	1F	.	2A/]	.	2d\	.
.	.	.	.	2B-/	.	1f\	.
*	*	*Xlig	*	*	*	*	*
=36-	=36-	=36-	=36-	=36-	=36-	=36-	=36-
1C	.	0G	.	1c	.	.	.
.	.	.	.	.	.	2e\	.
*Xlig	*	*	*	*	*	*	*
1ryy	.	.	.	1ryy	.	1ryy	.
=37-	=37-	=37-	=37-	=37-	=37-	=37-	=37-
0F;l	-bis	0F;l	-bis.	0c;l	-bis.	0f;l	-bis.
!	!	!LO:PB:g=original	!	!LO:LB:g=original	!	!LO:LB:g=original	!
=38||	=38||	=38||	=38||	=38||	=38||	=38||	=38||
*met(C|)	*	*met(C|)	*	*met(C|)	*	*met(C|)	*
*	*	*	*	*	*	*k[b-]	*
!	!	!LO:TX:a:t=2dum	!	!	!	!	!
1F	A-	1f	A-	1A	A-	1c	A-
!LO:TX:t=P:problem=kreska pseudotaktowa	!	!LO:TX:t=P:problem=kreska pseudotaktowa	!	!	!	!LO:TX:t=P:problem=kreska pseudotaktowa	!
1D	-gnus	1f	-gnus	2A/	-gnus	1d	-gnus
!	!	!	!	!LO:TX:t=P:problem=kreska pseudotaktowa	!	!	!
.	.	.	.	2B-/	.	.	.
=39-	=39-	=39-	=39-	=39-	=39-	=39-	=39-
*	*	*	*	*	*	*	*ij
2C/	De-	1e	De-	1c	De-	1e	A-
1c	.	.	.	.	.	.	.
!	!	!LO:TX:t=P:problem=kreska pseudotaktowa	!	!	!	!LO:TX:t=P:problem=kreska pseudotaktowa	!
.	.	1d	-i	1G	.	1g	-gnus
*	*	*	*	*	*	*	*Xij
2B-\	.	.	.	.	.	.	.
=40-	=40-	=40-	=40-	=40-	=40-	=40-	=40-
!LO:TX:t=P:problem=kreska pseudotaktowa	!	!	!	!	!	!	!
*	*	*lig	*	*	*	*	*
!	!	!	!	!LO:TX:t=P:problem=kreska pseudotaktowa	!	!	!
1c	-i	1e	Qui	1c	.	1e	De-
*lig	*	*	*	*	*	*	*
1C	Qui	1g	.	2G/	.	2e\	.
.	.	.	.	2E/	.	1c\	.
*	*	*Xlig	*	*	*	*	*
=41-	=41-	=41-	=41-	=41-	=41-	=41-	=41-
*	*	*lig	*	*	*	*	*
1D	.	1f	.	1F	.	.	.
!	!	!	!	!	!	!LO:TX:t=P:problem=kreska pseudotaktowa	!
.	.	.	.	.	.	2B-/	.
*Xlig	*	*	*	*	*	*	*
1C	tol-	1e	.	2G/	.	2c\	-i
.	.	.	.	1c\	.	1g\	Qui
*	*	*Xlig	*	*	*	*	*
=42-	=42-	=42-	=42-	=42-	=42-	=42-	=42-
!LO:TX:t=P:problem=kreska pseudotaktowa	!	!	!	!	!	!	!
*	*	*lig	*	*	*	*	*
1G	.	1d	tol-	.	.	.	.
!	!	!	!	!	!	!LO:TX:t=P:problem=kreska pseudotaktowa	!
.	.	.	.	2B-/	.	2g\	tol-
!LO:LB:g=original	!	!	!	!LO:TX:t=P:problem=kreska pseudotaktowa	!	!	!
2C,/	-lis	1c	.	1c,	-i	2e\	-lis
1F\	pec-	.	.	.	.	1a\	pec-
*	*	*Xlig	*	*	*	*	*
=43-	=43-	=43-	=43-	=43-	=43-	=43-	=43-
!	!	!LO:TX:t=P:problem=kreska pseudotaktowa	!	!	!	!	!
.	.	1c	-lis	2F/	Qui	.	.
!LO:TX:t=P:problem=kreska pseudotaktowa	!	!	!	!	!	!LO:TX:t=P:problem=kreska pseudotaktowa	!
2E/	.	.	.	2G/	.	2g\	.
*	*	*lig	*	*	*	*	*
1D	.	1f	pec-	2A/	tol-	2f\	-ca-
.	.	.	.	2B-/	.	2d\	.
=44-	=44-	=44-	=44-	=44-	=44-	=44-	=44-
*	*	*	*	*lig	*	*	*
!	!	!	!	!	!	!LO:TX:t=P:problem=kreska pseudotaktowa	!
2C/	-ca-	1e	.	1c	.	1g	.
1c	.	.	.	.	.	.	.
*	*	*Xlig	*	*	*	*	*
.	.	1d	-ca-	1d	.	2f\	.
!LO:TX:t=P:problem=kreska pseudotaktowa	!	!	!	!	!	!	!
2B-\	-ta	.	.	.	.	2d\	.
*	*	*	*	*Xlig	*	*	*
=45-	=45-	=45-	=45-	=45-	=45-	=45-	=45-
!	!	!LO:TX:t=P:problem=kreska pseudotaktowa	!	!LO:TX:t=P:problem=kreska pseudotaktowa	!	!	!
1A	pec-	1A	-ta	1c	-lis	2e\	.
!	!	!	!	!	!	!LO:TX:t=P:problem=kreska pseudotaktowa	!
.	.	.	.	.	.	2f\	-ta
!LO:TX:t=P:problem=kreska pseudotaktowa	!	!	!	!	!	!LO:LB:g=original	!
*	*	*lig	*	*	*	*	*
1G	.	1d	mun-	1Bn	pec-	1g	mun-
=46-	=46-	=46-	=46-	=46-	=46-	=46-	=46-
*	*	*	*	*custos:c	*	*	*
!	!	!	!	!LO:TX:t=P:problem=kreska pseudotaktowa	!	!LO:TX:t=P:problem=kreska pseudotaktowa	!
1C	-ca-	1c	.	[<1c	-ca-	1e	-di
*	*	*Xlig	*	*	*	*	*
!	!	!	!	!LO:LB:g=original	!	!	!
*	*	*lig	*	*	*	*	*
!	!	!	!	!LO:TX:a:t=P:problem=brak zakończenia ligatury	!	!	!
1F	.	1A	-di	2c/]	.	1c	mi-
.	.	.	.	1A/	.	.	.
=47-	=47-	=47-	=47-	=47-	=47-	=47-	=47-
!	!	!LO:TX:t=P:problem=kreska pseudotaktowa	!	!	!	!	!
0D	.	1F	.	.	.	1d	-ſe-
!	!	!	!	!LO:TX:t=P:problem=kreska pseudotaktowa	!	!	!
.	.	.	.	2F/	-ta	.	.
*	*	*Xlig	*	*	*	*	*
!	!	!LO:LB:g=original	!	!	!	!	!
*	*	*lig	*	*	*	*	*
.	.	1A	Qui	1F	mun-	1f	-re-
=48-	=48-	=48-	=48-	=48-	=48-	=48-	=48-
!LO:TX:t=P:problem=kreska pseudotaktowa	!	!	!	!	!	!LO:TX:t=P:problem=kreska pseudotaktowa	!
1C	.	1c	.	1G	.	1e	-re
*	*	*Xlig	*	*	*	*	*
1BB-	.	1d	tol-	1B-y	.	1f	no-
=49-	=49-	=49-	=49-	=49-	=49-	=49-	=49-
!	!	!LO:TX:t=P:problem=kreska pseudotaktowa	!	!	!	!	!
*	*	*	*	*lig	*	*	*
1C	.	1c	-lis	1G	-di	2e\	.
.	.	.	.	.	.	1c	.
!LO:TX:t=P:problem=kreska pseudotaktowa	!	!	!	!	!	!	!
*	*	*lig	*	*	*	*	*
!	!	!	!	!LO:TX:t=P:problem=kreska pseudotaktowa	!	!	!
1D	.	1f	pec-	1F	.	.	.
.	.	.	.	.	.	2Bn/	.
*	*	*	*	*Xlig	*	*	*
=50-	=50-	=50-	=50-	=50-	=50-	=50-	=50-
!	!	!	!	!	!	!LO:TX:t=P:problem=kreska pseudotaktowa	!
2C/	-ta	1e	.	1c	mi-	1c	-bis,
1c	mun-	.	.	.	.	.	.
*	*	*Xlig	*	*	*	*	*
*	*	*lig	*	*	*	*	*
.	.	1d	-ca-	1G	-ſe-	1d	mi-
2B-\	.	.	.	.	.	.	.
=51-	=51-	=51-	=51-	=51-	=51-	=51-	=51-
!LO:TX:t=P:problem=kreska pseudotaktowa	!	!	!	!	!	!	!
1A	.	1c	.	1c	-re-	1e	-ſe-
*	*	*Xlig	*	*	*	*	*
*	*	*lig	*	*	*	*	*
1F	.	1A	-ta	2c/	-re	2f\	-re-
!	!	!	!	!	!	!LO:TX:t=P:problem=kreska pseudotaktowa	!
.	.	.	.	1A/	no-	2c\	-re
=52-	=52-	=52-	=52-	=52-	=52-	=52-	=52-
1D	.	1F	.	.	.	2d\	no-
!	!	!	!	!LO:TX:t=P:problem=kreska pseudotaktowa	!	!	!
.	.	.	.	2B-/	.	1f	.
*	*	*Xlig	*	*	*	*	*
!LO:TX:t=P:problem=kreska pseudotaktowa	!	!	!	!	!	!	!
1C,	-di	1G	mun-	1c	.	.	.
.	.	.	.	.	.	2e\	.
!LO:LB:g=original	!	!	!	!	!	!	!
=53-	=53-	=53-	=53-	=53-	=53-	=53-	=53-
!	!	!LO:TX:t=P:problem=kreska pseudotaktowa	!	!LO:TX:t=P:problem=kreska pseudotaktowa	!	!LO:TX:t=P:problem=kreska pseudotaktowa	!
1F	mi-	1F	-di	1c	-bis	1f	-bis
1c	.	1A	mi-	1F	mi-	1f	mi-
=54-	=54-	=54-	=54-	=54-	=54-	=54-	=54-
!LO:TX:t=P:problem=kreska pseudotaktowa	!	!	!	!	!	!	!
1c	-se-	1A	-ſe-	1A	-ſe-	1e	-ſe-
!	!	!	!	!LO:TX:t=P:problem=kreska pseudotaktowa	!	!LO:TX:t=P:problem=kreska pseudotaktowa	!
2d\	-re-	1F	-re-	1A	-re-	1f	-re-
1c\	.	.	.	.	.	.	.
!	!	!	!	!	!	!LO:LB:g=original	!
=55-	=55-	=55-	=55-	=55-	=55-	=55-	=55-
!	!	!LO:TX:t=P:problem=kreska pseudotaktowa	!	!	!	!	!
.	.	1A	-re	1c	-re	1e	-re
!LO:TX:t=P:problem=kreska pseudotaktowa	!	!	!	!	!	!	!
2A\	.	.	.	.	.	.	.
!	!	!	!	!	!	!LO:TX:t=P:problem=kreska pseudotaktowa	!
1F	-re	1c	no-	2A/	no-	1f	.
.	.	.	.	1c\	.	.	.
=56-	=56-	=56-	=56-	=56-	=56-	=56-	=56-
!LO:TX:t=P:problem=kreska pseudotaktowa	!	!	!	!	!	!	!
1D	.	0d	.	.	.	1a	no-
.	.	.	.	4Bn/	.	.	.
!	!	!	!	!LO:TX:t=P:problem=kreska pseudotaktowa	!	!	!
.	.	.	.	4A/	.	.	.
!	!	!	!	!LO:LB:g=original	!	!	!
1G	no-	.	.	1Bn	.	1g	.
=57-	=57-	=57-	=57-	=57-	=57-	=57-	=57-
0C	.	0ryy	.	0ryy	.	0ryy	.
=58-	=58-	=58-	=58-	=58-	=58-	=58-	=58-
!LO:TX:b:Bi:t=Agnus 3tium\nut 1mum	!	!	!	!LO:TX:b:Bi:t=Agnus 3tium ut 1mum	!	!LO:TX:b:Bi:t=Agnus 3tium ut 1mum	!
0C;l	-bis.	0c;l	-bis.	0c;l	-bis.	0e;l	-bis.
!LO:LB:g=original	!	!LO:LB:g=original	!	!	!	!	!
=59||	=59||	=59||	=59||	=59||	=59||	=59||	=59||
*met(C|)	*	*met(C|)	*	*met(C|)	*	*met(C|)	*
*	*	*	*	*	*	*k[]	*
*lig	*	*lig	*	*lig	*	*	*
1Fyy	A-	1F	A-	1cyy	A-	0fyy	A-
1Dyy	.	1A	.	1dyy	.	.	.
*Xlig	*	*Xlig	*	*Xlig	*	*	*
=60-	=60-	=60-	=60-	=60-	=60-	=60-	=60-
*lig	*	*lig	*	*	*	*	*
!	!	!	!	!	!	!LO:TX:t=P:problem=kreska pseudotaktowa	!
1Cyy	.	1c	.	2G/yy	.	1eyy	.
.	.	.	.	1Ayy	.	.	.
*	*	*	*	*	*	*lig	*
1Dyy	.	1A	.	.	.	1dyy	.
!	!	!	!	!LO:TX:t=P:problem=kreska pseudotaktowa	!	!	!
.	.	.	.	2F/yy	.	.	.
*Xlig	*	*Xlig	*	*	*	*	*
=61-	=61-	=61-	=61-	=61-	=61-	=61-	=61-
*lig	*	*lig	*	*	*	*	*
1BB-yy	.	1d	.	1B-yy	.	1fyy	.
*	*	*	*	*	*	*Xlig	*
*	*	*	*	*	*	*lig	*
1Cyy	.	1c	.	1Gyy	.	1eyy	.
*Xlig	*	*Xlig	*	*	*	*	*
=62-	=62-	=62-	=62-	=62-	=62-	=62-	=62-
*lig	*	*lig	*	*	*	*	*
1Fyy	.	1A	.	2F/yy	.	1cyy	.
.	.	.	.	1cyy	.	.	.
*	*	*	*	*	*	*Xlig	*
*	*	*	*	*	*	*lig	*
1Dyy	.	1F	.	.	.	1dyy	.
!	!	!	!	!LO:TX:t=P:problem=kreska pseudotaktowa	!	!	!
.	.	.	.	2B-/yy	.	.	.
*Xlig	*	*Xlig	*	*	*	*	*
=63-	=63-	=63-	=63-	=63-	=63-	=63-	=63-
*lig	*	*	*	*	*	*	*
1Cyy	-gnus	1G	.	1.cyy	.	1eyy	.
*	*	*	*	*	*	*Xlig	*
!LO:TX:t=P:problem=kreska pseudotaktowa	!	!LO:TX:t=P:problem=kreska pseudotaktowa	!	!	!	!LO:TX:t=P:problem=kreska pseudotaktowa	!
1Fyy	.	1F	-gnus	.	.	1fyy	-gnus
.	.	.	.	2B-/yy	.	.	.
*Xlig	*	*	*	*	*	*	*
=64-	=64-	=64-	=64-	=64-	=64-	=64-	=64-
0Fyy	De-	0f	De-	0Ayy	.	0cyy	De-
=65-	=65-	=65-	=65-	=65-	=65-	=65-	=65-
!	!	!	!	!LO:TX:t=P:problem=kreska pseudotaktowa	!	!	!
*	*	*	*	*	*	*lig	*
1Cyy	.	1e	.	1Gyy	-gnus	1cyy	.
!	!	!	!	!	!	!LO:TX:t=P:problem=♭ above	!
1.Gyy	.	0d	.	1.gyy	De-	1B-Xyy	.
*	*	*	*	*	*	*Xlig	*
=66-	=66-	=66-	=66-	=66-	=66-	=66-	=66-
.	.	.	.	.	.	2B-/yy	.
!LO:TX:t=P:problem=kreska pseudotaktowa	!	!	!	!	!	!	!
2F/yy	.	.	.	2d\yy	.	2A/yy	.
*	*	*lig	*	*	*	*	*
2E/yy	.	1g	.	1eyy	.	2G/yy	.
2C/yy	.	.	.	.	.	1c\yy	.
=67-	=67-	=67-	=67-	=67-	=67-	=67-	=67-
!	!	!	!	!LO:TX:t=P:problem=kreska pseudotaktowa	!	!	!
1Dyy	.	1f	.	1dyy	.	.	.
!	!	!	!	!	!	!LO:TX:t=P:problem=kreska pseudotaktowa	!
.	.	.	.	.	.	2Bn/yy	.
*	*	*Xlig	*	*	*	*	*
!LO:TX:t=P:problem=kreska pseudotaktowa	!	!	!	!	!	!	!
*	*	*lig	*	*	*	*	*
1Cyy	.	1e	.	2e\yy	.	2c/yy	-i
.	.	.	.	1c\yy	.	1g\yy	De-
!LO:LB:g=original	!	!	!	!	!	!	!
=68-	=68-	=68-	=68-	=68-	=68-	=68-	=68-
1Gyy	.	1d	.	.	.	.	.
!	!	!	!	!LO:TX:t=P:problem=kreska pseudotaktowa	!	!	!
.	.	.	.	2B-/yy	.	2g\yy	.
*	*	*Xlig	*	*	*	*	*
!	!	!	!	!LO:LB:g=original	!	!	!
!LO:TX:t=P:problem=kreska pseudotaktowa	!	!LO:TX:t=P:problem=kreska pseudotaktowa	!	!LO:TX:t=P:problem=kreska pseudotaktowa	!	!LO:TX:t=P:problem=kreska pseudotaktowa	!
0Cyy	-i	0c	-i,	0cyy	-i	0eyy	-i
!	!	!LO:LB:g=original	!	!	!	!	!
=69-	=69-	=69-	=69-	=69-	=69-	=69-	=69-
!	!	!	!	!LO:TX:t=P:problem=kreska pseudotaktowa	!	!	!
.	.	.	.	.	.	.	.
!	!	!	!	!	!	!LO:LB:g=original	!
*lig	*	*lig	*	*lig	*	*	*
1Dyy	Qui	1f	Qui	1Ayy	Qui	1Ayy	Qui
=70-	=70-	=70-	=70-	=70-	=70-	=70-	=70-
!	!	!LO:TX:t=P:problem=kreska pseudotaktowa	!	!	!	!LO:TX:t=P:problem=kreska pseudotaktowa	!
1Cyy	.	1e	.	1Gyy	.	1cyy	tol-
*Xlig	*	*Xlig	*	*Xlig	*	*	*
1Dyy	tol-	1d	tol-	1Fyy	tol-	2A/yy	-lis
.	.	.	.	.	.	1F/yy	pec-
=71-	=71-	=71-	=71-	=71-	=71-	=71-	=71-
!LO:TX:t=P:problem=kreska pseudotaktowa	!	!LO:TX:t=P:problem=kreska pseudotaktowa	!	!LO:TX:t=P:problem=kreska pseudotaktowa	!	!	!
1Dyy	-lis	1A	-lis	1Ayy	-lis	.	.
.	.	.	.	.	.	1fyy	-ca-
*	*	*lig	*	*lig	*	*	*
1BB-yy	pec-	1d	pec-	1B-yy	pec-	.	.
!	!	!	!	!	!	!LO:TX:t=P:problem=kreska pseudotaktowa	!
.	.	.	.	.	.	2f\yy	-ta
=72-	=72-	=72-	=72-	=72-	=72-	=72-	=72-
1Cyy	.	1c	.	1Gyy	.	1eyy	pec-
*	*	*Xlig	*	*Xlig	*	*	*
!LO:TX:t=P:problem=kreska pseudotaktowa	!	!	!	!	!	!LO:TX:t=P:problem=kreska pseudotaktowa	!
1Fyy	-ca-	1A	-ca-	2F/yy	-ca-	1cyy	.
.	.	.	.	1A/yy	.	.	.
=73-	=73-	=73-	=73-	=73-	=73-	=73-	=73-
!	!	!LO:TX:t=P:problem=kreska pseudotaktowa	!	!	!	!	!
2D/yy	-ta	1F	-ta	.	.	1d	-ca-
!	!	!	!	!LO:TX:t=P:problem=kreska pseudotaktowa	!	!	!
2BB-/yy	mun-	.	.	2B-/yy	.	.	.
*	*	*lig	*	*	*	*	*
1Fyy	.	1A	pec-	2A/yy	.	2c\yy	.
.	.	.	.	2F/yy	.	2d\yy	.
=74-	=74-	=74-	=74-	=74-	=74-	=74-	=74-
2C,/yy	-di	1c	.	2G/yy	.	2e\yy	.
!	!	!	!	!LO:TX:t=P:problem=kreska pseudotaktowa	!	!	!
1cyy	pec-	.	.	2A/yy	.	2f\yy	.
*	*	*Xlig	*	*	*	*	*
*	*	*lig	*	*	*	*	*
!	!	!	!	!	!	!LO:TX:t=P:problem=kreska pseudotaktowa	!
.	.	1d	.	1Gyy	.	1gyy	.
!LO:TX:t=P:problem=kreska pseudotaktowa	!	!	!	!	!	!	!
2Bn\yy	.	.	.	.	.	.	.
=75-	=75-	=75-	=75-	=75-	=75-	=75-	=75-
2c\yy	-ca-	1c	.	2A/yy	.	2e\yy	-ta
2C/yy	.	.	.	1Gyy	.	1cyy	mun-
*	*	*Xlig	*	*	*	*	*
*	*	*lig	*	*	*	*	*
1Dyy	.	1f	-ca-	.	.	.	.
!	!	!	!	!LO:TX:t=P:problem=kreska pseudotaktowa	!	!	!
.	.	.	.	2F/yy	-ta	2Bn/yy	.
=76-	=76-	=76-	=76-	=76-	=76-	=76-	=76-
!LO:TX:t=P:problem=kreska pseudotaktowa	!	!	!	!	!	!LO:TX:t=P:problem=kreska pseudotaktowa	!
1Cyy	-ta	1e	.	2A/yy	mun-	1cyy	-di
.	.	.	.	1cyy	.	.	.
*	*	*Xlig	*	*	*	*	*
*	*	*lig	*	*	*	*	*
1Gyy	mun-	1d	.	.	.	1dyy	pec-
.	.	.	.	2Bn/yy	.	.	.
=77-	=77-	=77-	=77-	=77-	=77-	=77-	=77-
!	!	!	!	!LO:TX:t=P:problem=kreska pseudotaktowa	!	!	!
1Cyy	.	1c	.	0cyy	-di.	1eyy	-ca-
*lig	*	*Xlig	*	*	*	*	*
*	*	*lig	*	*	*	*	*
1Fyy	.	1A	-ta	.	.	2f\yy	.
.	.	.	.	.	.	2F/yy	.
!	!	!	!	!LO:LB:g=original	!	!	!
=78-	=78-	=78-	=78-	=78-	=78-	=78-	=78-
1Dyy	.	1F	.	2d\yy	mun-	2A/yy	-ta
!	!	!	!	!	!	!LO:TX:t=P:problem=kreska pseudotaktowa	!
.	.	.	.	1fyy	.	2B/yy	.
*Xlig	*	*Xlig	*	*	*	*	*
!LO:TX:t=P:problem=kreska pseudotaktowa	!	!	!	!	!	!LO:LB:g=original	!
1Cyy	-di,	1G	mun-	.	.	1cyy	mun-
.	.	.	.	2e\yy	.	.	.
!LO:LB:g=original	!	!	!	!	!	!	!
=79-	=79-	=79-	=79-	=79-	=79-	=79-	=79-
!	!	!LO:TX:t=P:problem=kreska pseudotaktowa	!	!LO:TX:t=P:problem=kreska pseudotaktowa	!	!LO:TX:t=P:problem=kreska pseudotaktowa	!
1cyy	Do-	1F	-di	1f,yy	-di	1Ayy	-di
!LO:TX:t=P:problem=kreska pseudotaktowa	!	!LO:LB:g=original	!	!	!	!	!
1Fyy	-na	1f	Do-	1Ayy	Do-	1cyy	Do-
=80-	=80-	=80-	=80-	=80-	=80-	=80-	=80-
!	!	!LO:TX:t=P:problem=kreska pseudotaktowa	!	!	!	!	!
1Dyy	no-	1f	-na	2A/yy	-na	1dyy	-na
.	.	.	.	2B-/yy	.	.	.
2C/yy	-bis	1e	no-	1cyy	no-	1eyy	no-
1c\yy	pa-	.	.	.	.	.	.
=81-	=81-	=81-	=81-	=81-	=81-	=81-	=81-
!	!	!LO:TX:t=P:problem=kreska pseudotaktowa	!	!LO:TX:t=P:problem=kreska pseudotaktowa	!	!LO:TX:t=P:problem=kreska pseudotaktowa	!
.	.	1d	-bis	1Gyy	-bis	1gyy	-bis
2B-y\yy	.	.	.	.	.	.	.
!LO:TX:t=P:problem=kreska pseudotaktowa	!	!	!	!	!	!	!
*	*	*lig	*	*	*	*	*
1cyy	.	1e	pa-	1cyy	pa-	1eyy	pa-
=82-	=82-	=82-	=82-	=82-	=82-	=82-	=82-
1Cyy	.	1g	.	2G/yy	.	2e\yy	.
.	.	.	.	2E/yy	.	1cyy	.
*	*	*Xlig	*	*	*	*	*
*	*	*lig	*	*	*	*	*
1Dyy	.	1f	.	1Fyy	.	.	.
!	!	!	!	!	!	!LO:TX:t=P:problem=kreska pseudotaktowa	!
.	.	.	.	.	.	2B/yy	.
=83-	=83-	=83-	=83-	=83-	=83-	=83-	=83-
!LO:TX:t=P:problem=kreska pseudotaktowa	!	!	!	!	!	!	!
1Cyy	.	1e	.	2G/yy	.	2c,/yy	-cem
.	.	.	.	1cyy	.	1gyy	do-
*	*	*Xlig	*	*	*	*	*
1Gyy	.	1d	.	.	.	.	.
!	!	!	!	!LO:TX:t=P:problem=kreska pseudotaktowa	!	!LO:TX:t=P:problem=kreska pseudotaktowa	!
.	.	.	.	2B-/yy	.	2g\yy	-na
=84-	=84-	=84-	=84-	=84-	=84-	=84-	=84-
!	!	!LO:TX:t=P:problem=kreska pseudotaktowa	!	!	!	!	!
2C/yy	.	0c	.	1cyy	.	2e\yy	no-
1Fyy	.	.	.	.	.	1ayy	.
.	.	.	.	2F/yy	.	.	.
!LO:TX:t=P:problem=kreska pseudotaktowa	!	!	!	!	!	!LO:TX:t=P:problem=kreska pseudotaktowa	!
2E/yy	.	.	.	2G/yy	.	2g\yy	.
=85-	=85-	=85-	=85-	=85-	=85-	=85-	=85-
*	*	*lig	*	*	*	*	*
1Dyy	.	1f	.	2A/yy	.	2f\yy	.
.	.	.	.	2B-/yy	.	2d\yy	.
!	!	!	!	!LO:TX:t=P:problem=kreska pseudotaktowa	!	!	!
2C/yy	-cem	1e	.	1cyy	.	1gyy	.
1c\yy	pa-	.	.	.	.	.	.
*	*	*Xlig	*	*	*	*	*
=86-	=86-	=86-	=86-	=86-	=86-	=86-	=86-
*	*	*lig	*	*	*	*	*
.	.	1d	.	1dyy	.	2f\yy	.
!	!	!	!	!	!	!LO:TX:t=P:problem=kreska pseudotaktowa	!
2B-\yy	.	.	.	.	.	2d\yy	-bis
!	!	!	!	!	!	!LO:LB:g=original	!
*lig	*	*	*	*lig	*	*	*
1Ayy	.	1A	.	1cyy	.	2e\yy	pa-
.	.	.	.	.	.	2f\yy	.
*	*	*Xlig	*	*	*	*	*
=87-	=87-	=87-	=87-	=87-	=87-	=87-	=87-
*	*	*lig	*	*	*	*	*
!	!	!	!	!	!	!LO:TX:t=P:problem=kreska pseudotaktowa	!
1Gyy	.	1d	.	1B-yy	.	1gyy	-cem
*Xlig	*	*	*	*Xlig	*	*	*
!	!	!	!	!LO:TX:t=P:problem=kreska pseudotaktowa	!	!	!
*	*	*	*	*	*	*lig	*
1Cyy	.	1c	.	1cyy	-cem	1eyy	Do-
*	*	*Xlig	*	*	*	*	*
!	!	!	!	!LO:LB:g=original	!	!	!
=88-	=88-	=88-	=88-	=88-	=88-	=88-	=88-
*	*	*lig	*	*	*	*	*
1Fyy	.	1A	.	2c/yy	Do-	1cyy	.
.	.	.	.	1Ayy	.	.	.
*	*	*	*	*	*	*Xlig	*
*	*	*custos:A	*	*	*	*	*
!LO:TX:t=P:problem=kreska pseudotaktowa	!	!LO:TX:t=P:problem=kreska pseudotaktowa	!	!	!	!	!
0Dyy	.	1F	.	.	.	1dyy	-na
!	!	!	!	!LO:TX:t=P:problem=kreska pseudotaktowa	!	!	!
.	.	.	.	2F/yy	.	.	.
*	*	*Xlig	*	*	*	*	*
=89-	=89-	=89-	=89-	=89-	=89-	=89-	=89-
*	*	*lig	*	*lig	*	*	*
!	!	!LO:LB:g=original	!	!	!	!LO:TX:t=P:problem=kreska pseudotaktowa	!
.	.	1A	.	1Fyy	-na	1fyy	.
!LO:LB:g=original	!	!	!	!	!	!	!
*lig	*	*	*	*	*	*lig	*
1Cyy	.	1c	.	1Gyy	.	1eyy	no-
*	*	*Xlig	*	*	*	*	*
=90-	=90-	=90-	=90-	=90-	=90-	=90-	=90-
*	*	*lig	*	*	*	*	*
1BB-yy	.	1d	.	1B-yy	.	1fyy	-bis
*Xlig	*	*	*	*Xlig	*	*Xlig	*
!LO:TX:t=P:problem=kreska pseudotaktowa	!	!	!	!	!	!	!
*	*	*	*	*lig	*	*	*
1Cyy	.	1c	.	1Gyy	no-	2e\yy	pa-
.	.	.	.	.	.	1c\yy	.
*	*	*Xlig	*	*	*	*	*
=91-	=91-	=91-	=91-	=91-	=91-	=91-	=91-
*	*	*lig	*	*	*	*	*
1Dyy	.	1f	.	1Fyy	.	.	.
!	!	!	!	!	!	!LO:TX:t=P:problem=kreska pseudotaktowa	!
.	.	.	.	.	.	2B/yy	.
*	*	*	*	*Xlig	*	*	*
*	*	*	*	*lig	*	*	*
2C,/yy	-cem	1e	.	1cyy	.	1cyy	.
1c\yy	do-	.	.	.	.	.	.
*	*	*Xlig	*	*	*	*	*
=92-	=92-	=92-	=92-	=92-	=92-	=92-	=92-
*	*	*lig	*	*	*	*	*
.	.	1d	.	1Gyy	.	1dyy	.
!LO:TX:t=P:problem=kreska pseudotaktowa	!	!	!	!	!	!	!
2B-\yy	-na	.	.	.	.	.	.
*	*	*	*	*Xlig	*	*	*
!	!	!	!	!LO:TX:t=P:problem=kreska pseudotaktowa	!	!LO:TX:t=P:problem=kreska pseudotaktowa	!
1Ayy	no-	1c	.	1cyy	-bis	1eyy	.
*	*	*Xlig	*	*	*	*	*
=93-	=93-	=93-	=93-	=93-	=93-	=93-	=93-
*	*	*lig	*	*	*	*	*
1Fyy	-bis	1A	.	2c/yy	pa-	2f\yy	.
!	!	!	!	!LO:TX:t=P:problem=kreska pseudotaktowa	!	!LO:TX:t=P:problem=kreska pseudotaktowa	!
.	.	.	.	[y2A/yy	.	2c\yy	.
*lig	*	*	*	*	*	*	*
1Dyy	pa-	1F	.	2A/]yy	.	2d\yy	.
.	.	.	.	2B-/yy	.	1f\yy	.
*	*	*Xlig	*	*	*	*	*
=94-	=94-	=94-	=94-	=94-	=94-	=94-	=94-
1Cyy	.	0G	.	1cyy	.	.	.
.	.	.	.	.	.	2e\yy	.
*Xlig	*	*	*	*	*	*	*
1ryy	.	.	.	1ryy	.	1ryy	.
=95-	=95-	=95-	=95-	=95-	=95-	=95-	=95-
!LO:TX:b:Bi:t=O. ad M. D. Gm.	!	!LO:TX:b:Bi:t=O. ad M. D. Gm.	!	!LO:TX:b:Bi:t=O. ad M. D. Gm.	!	!LO:TX:b:Bi:t=O. ad M. D. Gm	!
0F;lyy	-cem	0F;l	-cem.	0c;lyy	-cem.	0f;lyy	-cem.
==	==	==	==	==yy	==	==	==
*-	*-	*-	*-	*-	*-	*-	*-
!!!system-decoration: [(s1,s2,s3,s4)]
!!!RDF**kern: < = below
!!!RDF**kern: l = terminal long
!!!ENC: Marta Lawrence
!!!END: 2021-07-28
!!!ENC: Anastazja Marusiak
!!!END: 2021-07-04
!!!YEC: Copyright 2022 Narodowy Instytut Fryderyka Chopina (https://polishscores.org)
!!!YEM: License CC-BY-4.0 (https://creativecommons.org/licenses/by/4.0)
